svgs/sharp-thin/list-tree.svg

<svg xmlns="http://www.w3.org/2000/svg" viewBox="0 0 512 512"><!--! Font Awesome Pro 6.6.0 by @fontawesome - https://fontawesome.com License - https://fontawesome.com/license (Commercial License) Copyright 2024 Fonticons, Inc. --><path d="M16 64l0 64 24 0 16 0 24 0 0-64L16 64zm24 80l-24 0L0 144l0-16L0 64 0 48l16 0 64 0 16 0 0 16 0 64 0 16-16 0-24 0 0 112 72 0 0-32 0-16 16 0 64 0 16 0 0 16 0 64 0 16-16 0-64 0-16 0 0-16 0-16-72 0 0 144 72 0 0-32 0-16 16 0 64 0 16 0 0 16 0 64 0 16-16 0-64 0-16 0 0-16 0-16-80 0-8 0 0-8 0-160 0-120zM144 416l0 16 0 16 64 0 0-64-64 0 0 32zm0-128l64 0 0-64-64 0 0 32 0 16 0 16zM168 88l8 0 320 0 8 0 0 16-8 0-320 0-8 0 0-16zM296 248l8 0 192 0 8 0 0 16-8 0-192 0-8 0 0-16zm0 160l8 0 192 0 8 0 0 16-8 0-192 0-8 0 0-16z"/></svg>

<svg xmlns="http://www.w3.org/2000/svg" viewBox="0 0 512 512"><!--! Font Awesome Pro 6.5.2 by @fontawesome - https://fontawesome.com License - https://fontawesome.com/license (Commercial License) Copyright 2024 Fonticons, Inc. --><path d="M16 64v64H40 56 80V64H16zm24 80H16 0V128 64 48H16 80 96V64v64 16H80 56V256h72V224 208h16 64 16v16 64 16H208 144 128V288 272H56V416h72V384 368h16 64 16v16 64 16H208 144 128V448 432H48 40v-8V264 144zM144 416v16 16h64V384H144v32zm0-128h64V224H144v32 16 16zM168 88h8H496h8v16h-8H176h-8V88zM296 248h8H496h8v16h-8H304h-8V248zm0 160h8H496h8v16h-8H304h-8V408z"/></svg>
